X:24
T:Harry Bradley's
R:reel
D:"Chasing the bear" by Jon Hicks
Z:Transcribed by Lionel Gueganton
L:1/8
M:4/4
K:D
|: A2 F/F/F DF F/F/F | ge fd ed B/c/d | A2 F/F/F DF F/F/F | EF GA GF EF  | 
   A2 F/F/F DF F/F/F | ge fd ed B/c/d | f2 af bf af       | gf ed Bc d2 :|
|: e[eA] ef ed Bd    | ge fd ed B/c/d | A2 F/F/F DF F/F/F | EF GA GF EF  | 
   e[eA] ef ed Bd    | ge fd ed B/c/d | f2 af bf af       | gf ed Bc d2 :|

